Catalina-light/places/16/mail-sent.svg

<?xml version="1.0" encoding="UTF-8" standalone="no"?>
<!-- Created with Inkscape (http://www.inkscape.org/) -->

<svg
   xmlns:dc="http://purl.org/dc/elements/1.1/"
   xmlns:cc="http://creativecommons.org/ns#"
   xmlns:rdf="http://www.w3.org/1999/02/22-rdf-syntax-ns#"
   xmlns:svg="http://www.w3.org/2000/svg"
   xmlns="http://www.w3.org/2000/svg"
   xmlns:sodipodi="http://sodipodi.sourceforge.net/DTD/sodipodi-0.dtd"
   xmlns:inkscape="http://www.inkscape.org/namespaces/inkscape"
   id="svg7384"
   sodipodi:docname="mail-sent.svg"
   version="1.1"
   inkscape:version="0.91 r13725"
   height="36"
   width="36">
  <metadata
     id="metadata90">
    <rdf:RDF>
      <cc:Work
         rdf:about="">
        <dc:format>image/svg+xml</dc:format>
        <dc:type
           rdf:resource="http://purl.org/dc/dcmitype/StillImage" />
        <dc:title>Gnome Symbolic Icon Theme</dc:title>
      </cc:Work>
    </rdf:RDF>
  </metadata>
  <sodipodi:namedview
     inkscape:cy="8.4047169"
     pagecolor="#ffffff"
     borderopacity="1"
     showborder="true"
     inkscape:bbox-paths="false"
     guidetolerance="10"
     inkscape:window-width="1033"
     showguides="true"
     inkscape:object-nodes="true"
     inkscape:snap-bbox="true"
     inkscape:pageshadow="2"
     inkscape:guide-bbox="true"
     inkscape:snap-nodes="true"
     bordercolor="#666666"
     objecttolerance="10"
     id="namedview88"
     showgrid="false"
     inkscape:window-maximized="0"
     inkscape:window-x="327"
     inkscape:snap-global="true"
     inkscape:window-y="69"
     gridtolerance="10"
     inkscape:window-height="641"
     inkscape:snap-to-guides="true"
     inkscape:current-layer="layer13"
     inkscape:zoom="4"
     inkscape:cx="50.021049"
     inkscape:snap-grids="true"
     inkscape:pageopacity="1">
    <inkscape:grid
       spacingx="1px"
       spacingy="1px"
       id="grid4866"
       empspacing="2"
       enabled="true"
       type="xygrid"
       snapvisiblegridlinesonly="true"
       visible="true" />
  </sodipodi:namedview>
  <title
     id="title9167">Gnome Symbolic Icon Theme</title>
  <defs
     id="defs7386" />
  <g
     inkscape:label="status"
     transform="translate(-442,-156)"
     inkscape:groupmode="layer"
     id="layer9"
     style="display:inline" />
  <g
     inkscape:label="devices"
     transform="translate(-442,-156)"
     inkscape:groupmode="layer"
     id="layer10" />
  <g
     inkscape:label="apps"
     transform="translate(-442,-156)"
     inkscape:groupmode="layer"
     id="layer11" />
  <g
     inkscape:label="actions"
     transform="translate(-442,-156)"
     inkscape:groupmode="layer"
     id="layer12" />
  <g
     inkscape:label="places"
     transform="translate(-442,-156)"
     inkscape:groupmode="layer"
     id="layer13">
    <g
       id="g4179"
       transform="translate(-5e-7,0.2080077)">
      <g
         transform="translate(-40.159179,0)"
         id="g4173">
        <path
           inkscape:connector-curvature="0"
           style="opacity:0.75;fill:#000000;fill-rule:evenodd;stroke:none;stroke-width:1px;stroke-linecap:butt;stroke-linejoin:miter;stroke-opacity:1"
           d="m 74.333984,2.8535156 -32.349609,14.3203124 10.960937,3.976563 0,9.634765 5.921876,-5.746094 8.75,7.691407 6.716796,-29.8769534 z M 72.125,5.6835938 66.556641,29.193359 57.982422,21.945312 72.125,5.6835938 Z M 68.677734,6.8320312 53.652344,19.382812 46.404297,16.996094 68.677734,6.8320312 Z m -6.453125,7.5136718 -5.441406,6.816406 -2.070312,5.423829 0,-5.876954 7.511718,-6.363281 z"
           transform="translate(442,156)"
           id="path4156" />
        <path
           style="opacity:0.1;fill:#000000;fill-rule:evenodd;stroke:none;stroke-width:1px;stroke-linecap:butt;stroke-linejoin:miter;stroke-opacity:1"
           d="m 488.40388,172.99651 22.27387,-10.16467 -15.02602,12.55115 z"
           id="path4158"
           inkscape:connector-curvature="0" />
        <path
           style="opacity:0.1;fill:#000000;fill-rule:evenodd;stroke:none;stroke-width:1px;stroke-linecap:butt;stroke-linejoin:miter;stroke-opacity:1"
           d="m 499.98275,177.94625 14.14214,-16.26345 -5.56846,23.5113 z"
           id="path4160"
           inkscape:connector-curvature="0"
           sodipodi:nodetypes="cccc" />
        <path
           style="opacity:0.4;fill:#000000;fill-rule:evenodd;stroke:none;stroke-width:1px;stroke-linecap:butt;stroke-linejoin:miter;stroke-opacity:1"
           d="m 496.71239,176.70882 0,5.87783 2.07076,-5.424 5.44225,-6.8178 z"
           id="path4162"
           inkscape:connector-curvature="0"
           sodipodi:nodetypes="ccccc" />
      </g>
    </g>
  </g>
  <g
     inkscape:label="mimetypes"
     transform="translate(-442,-156)"
     inkscape:groupmode="layer"
     id="layer14" />
  <g
     inkscape:label="emblems"
     transform="translate(-442,-156)"
     inkscape:groupmode="layer"
     id="layer15"
     style="display:inline" />
</svg>

<svg xmlns="http://www.w3.org/2000/svg" width="36" height="36" version="1.1">
<g>
<g>
<g fill-rule="evenodd">
<path transform="translate(0 0.208)" d="m74.334 2.8535-32.35 14.32 10.961 3.9766v9.6348l5.9219-5.7461 8.75 7.6914 6.7168-29.877zm-2.209 2.8301-5.5684 23.51-8.5742-7.248 14.143-16.262zm-3.4473 1.1484-15.025 12.551-7.248-2.3867 22.273-10.164zm-6.4531 7.5137-5.4414 6.8164-2.0703 5.4238v-5.877l7.5117-6.3633z" opacity=".75" />
<path d="m46.4 17.208 22.274-10.165-15.026 12.551z" opacity=".1" />
<path d="m57.98 22.158 14.142-16.263-5.5685 23.511z" opacity=".1" />
<path d="m54.71 20.918v5.8778l2.0708-5.424 5.4422-6.8178z" opacity=".4" />
</g>
</g>
</g>
</svg>
